X:1
T:Title
%%score 1 2 3
L:1/8
M:3/2
K:C
V:1 treble nm="Part_1"
V:2 treble-8 nm="Part_2"
V:3 treble-8 nm="Part_3"
V:1
 z4 z4 D4 | E6 D2 E2 F2 | G2 A3 G G4 F2 | G4 z4 _B2 c2 | A4 G2 A3 _B c2 | _B2 A3 G G2 E2 F2 | %6
 G4 z4 G4 | A2 F4 F3 E F2 | G4 E2 G2 F3 D | F2 E4 D4 C2 | D12 || A8 A4 | A2 GA G2 E2 F2 G2 | %13
 E4 C4 z4 | E3 F G2 A3 GFE | D4 z2 F2 E2 G2 | F3 D E2 D4 C2 | D8 z4 | F4 F2 F3 F F2 | E8 E2 D2- | %20
 D2 G3 F G2 A2 F2 | G4 z4 G4 | A2 F4 F3 E F2 | G4 E2 G2 F3 D | F2 E4 D4 C2 | D12 |] %26
V:2
 z12 | C4 C2 D2 C2 c2 | d2 A2 e2 d4 c2 | d8 G4 | e4 d2 c2 G2 E2 | G4 e2 d4 c2 | d8 z2 c2 | %7
 d3 c A2 _B3 A B2 | c2 _B2 G2 c2 d2 A2 | D4 E2 A4 G2 | A12 || e8 e4 | e4 c4 z4 | C12 | C8 E4 | %15
 D4 F2 c4 B2 | d4 BA A4 G2 | A4 z4 A2 A2 | D2 D8 D2 | E4 C4 c2 _B2 | G4 d2 d4 c2 | d8 z2 c2 | %22
 d3 c A2 _B4 A2 | c2 _B2 G2 c2 d2 A2 | D4 E2 A4 G2 | A12 |] %26
V:3
[K:F] z4 z4 D4 | G6 F2 G2 A2 | B2 c4 G2 A4 | G8 z4 | c4 B2 c2 d2 e2 | d4 c2 B2 A4 | G8 G4 | %7
 D4 D4 D4 | C2 G4 E3 D F2 | A4 G2 F2 E4 | D12 || A12 | A12 | c12 | c4 c4 c4 | d4 c2 A4 G2 | %16
 D2 G4 F2 E4 | D12 | d4 d4 d4 | =B4 c4 z4 | d2 B2 G2 B2 A4 | G2 FG A2 G4 E2 | D4 D4 D4 | %23
 C2 G4 E3 D F2 | A2 GA G2 F2 E4 | D12 |] %26

